keyboards/ergodox_ez/base/keymaps/dvorak_qwerty/icon/lock-screen.svg

<?xml version="1.0" encoding="UTF-8" standalone="no"?>
<!-- Uploaded to: SVG Repo, www.svgrepo.com, Generator: SVG Repo Mixer Tools -->

<svg
   fill="#010101"
   width="800px"
   height="800px"
   viewBox="0 0 32 32"
   version="1.1"
   id="svg109500"
   xmlns="http://www.w3.org/2000/svg"
   xmlns:svg="http://www.w3.org/2000/svg">
  <defs
     id="defs109504" />
  <path
     d="M30 2.994h-28c-1.099 0-2 0.9-2 2v17.006c0 1.099 0.9 1.999 2 1.999h13v3.006h-5c-0.552 0-1 0.448-1 1s0.448 1 1 1h12c0.552 0 1-0.448 1-1s-0.448-1-1-1h-5v-3.006h13c1.099 0 2-0.9 2-1.999v-17.006c0-1.1-0.901-2-2-2zM30 22h-28v-17.006h28v17.006z"
     id="path109498" />
  <path
     d="m 21.268289,12.062167 v 0 c 0,-2.9070651 -2.363382,-5.2720808 -5.268169,-5.2720808 -2.904907,0 -5.268168,2.3650157 -5.268168,5.2720808 v 0 H 9.3960292 V 20.44342 H 22.603971 v -8.381253 z m -8.375036,0 c 0,-1.714463 1.393676,-3.1091768 3.106867,-3.1091768 1.71319,0 3.106869,1.3947138 3.106869,3.1091768 v 0 z m 3.812171,3.95547 v 2.410318 h -1.427538 v -2.410798 c -0.29838,-0.219655 -0.492896,-0.572689 -0.492896,-0.972106 0,-0.667015 0.540325,-1.207622 1.206845,-1.207622 0.666641,0 1.206726,0.540728 1.206726,1.207622 0,0.399417 -0.194517,0.752691 -0.493137,0.972586 z"
     id="path102214"
     style="fill:none;stroke:#010101;stroke-width:1.02099;stroke-linejoin:round;stroke-dasharray:none;stroke-opacity:1" />
</svg>

<svg xmlns="http://www.w3.org/2000/svg" width="800" height="800" fill="#010101" viewBox="0 0 32 32"><path d="M30 2.994H2c-1.099 0-2 .9-2 2V22c0 1.099.9 1.999 2 1.999h13v3.006h-5a1 1 0 0 0 0 2h12a1 1 0 0 0 0-2h-5v-3.006h13c1.099 0 2-.9 2-1.999V4.994c0-1.1-.901-2-2-2M30 22H2V4.994h28z"/><path d="M21.268 12.062A5.276 5.276 0 0 0 16 6.79a5.276 5.276 0 0 0-5.268 5.272H9.396v8.381h13.208v-8.38zm-8.375 0A3.11 3.11 0 0 1 16 8.953a3.11 3.11 0 0 1 3.107 3.11zm3.812 3.956v2.41h-1.427v-2.41a1.207 1.207 0 1 1 1.428 0z" style="fill:none;stroke:#010101;stroke-width:1.02099;stroke-linejoin:round;stroke-dasharray:none;stroke-opacity:1"/></svg>
